packages/ffe-icons/icons/filled/sm/camera_alt.svg

<svg xmlns="http://www.w3.org/2000/svg" height="20" viewBox="0 -960 960 960" width="20"><path d="M480-279.386q65.846 0 109.23-44.384T632.614-432q0-62.846-43.384-107.73-43.384-44.884-109.23-44.884T370.77-539.73Q327.386-494.846 327.386-432q0 63.846 43.384 108.23 43.384 44.384 109.23 44.384Zm0-51.998q-44.308 0-72.462-28.154-28.154-28.154-28.154-71.462 0-42.308 28.154-71.962 28.154-29.654 72.462-29.654 44.308 0 72.462 29.654 28.154 29.654 28.154 71.962 0 43.308-28.154 71.462-28.154 28.154-72.462 28.154ZM180.309-164.001q-26.308 0-45.308-19t-19-45.308v-407.382q0-26.308 19-45.308t45.308-19h116.153l52.308-69.692q9.846-12.846 23.308-19.577 13.461-6.731 28.922-6.731h158q15.461 0 28.922 6.731 13.462 6.731 23.308 19.577l52.308 69.692h116.153q27.308 0 45.808 19t18.5 45.308v407.382q0 26.308-18.5 45.308t-45.808 19H180.309Z"/></svg>

<svg xmlns="http://www.w3.org/2000/svg" height="20" viewBox="0 -960 960 960" width="20"><path d="M480-279.39q65.85 0 109.23-44.38 43.38-44.38 43.38-108.23 0-62.85-43.38-107.73T480-584.61q-65.85 0-109.23 44.88-43.38 44.88-43.38 107.73 0 63.85 43.38 108.23T480-279.39Zm0-51.99q-44.31 0-72.46-28.16-28.16-28.15-28.16-71.46 0-42.31 28.16-71.96 28.15-29.66 72.46-29.66 44.31 0 72.46 29.66 28.16 29.65 28.16 71.96 0 43.31-28.16 71.46-28.15 28.16-72.46 28.16ZM180.31-164Q154-164 135-183q-19-19-19-45.31v-407.38Q116-662 135-681q19-19 45.31-19h116.15l52.31-69.69q9.85-12.85 23.31-19.58Q385.54-796 401-796h158q15.46 0 28.92 6.73t23.31 19.58L663.54-700h116.15q27.31 0 45.81 19 18.5 19 18.5 45.31v407.38Q844-202 825.5-183q-18.5 19-45.81 19H180.31Z"/></svg>
